X: 9018
T: Da Bixter Rant
R: reel
M: 4/4
K: Gmajor
A|BGcA dBBc|Affd cAFA|BGcA dBcA|1 BGAF FGG:|2 BGAF FGBd||
g2dg Bgdg|fdce cAF2|g2dg Bgdg|fdcA G4|
g2dg Bgdg|fdce cAFA|BGcA dBcA|BGAF FG2||

